X: 8808
T: Cuffe Street
R: jig
M: 6/8
K: Edorian
BEE B2 d|BEE BAF|BEE B2d|BAF AFD|
BEE B2 d|BEE BAF|DFA ded|1 BAF AFD:|2 BAF AFE||
DFA d2 A|BAB dAF|DFA ded|cAG FEF|
DFA d2 f|e2 d efg|faf ede|1 fdB AFE:|2 fdB AFA||

